packages/symbols/svgs/duotone/filter-duotone.svg

<svg width="24" height="24" viewBox="0 0 24 24" fill="none" xmlns="http://www.w3.org/2000/svg">
<g clip-path="url(#clip0_1068_7810)">
<path opacity="0.5" fill-rule="evenodd" clip-rule="evenodd" d="M0.702133 3.91955C1.1398 3.5827 1.76766 3.66442 2.10452 4.10208L10.7925 15.3901C10.9271 15.5649 11.0001 15.7794 11.0001 16V22H13.0001V16C13.0001 15.7794 13.073 15.5649 13.2076 15.3901L21.8956 4.10208C22.2325 3.66442 22.8603 3.5827 23.298 3.91955C23.7357 4.25641 23.8174 4.88428 23.4805 5.32194L15.0001 16.3403V23C15.0001 23.5523 14.5523 24 14.0001 24H10.0001C9.44778 24 9.00006 23.5523 9.00006 23V16.3403L0.519604 5.32194C0.18275 4.88428 0.264472 4.25641 0.702133 3.91955Z" fill="black"/>
<path fill-rule="evenodd" clip-rule="evenodd" d="M2.02019 4C2.05975 4.05624 2.16028 4.16863 2.40635 4.3273C2.84108 4.60761 3.5364 4.89786 4.48494 5.15656C6.3677 5.67003 9.02505 6 12 6C14.975 6 17.6323 5.67003 19.5151 5.15656C20.4636 4.89786 21.1589 4.60761 21.5937 4.3273C21.8397 4.16864 21.9402 4.05624 21.9798 4C21.9402 3.94376 21.8397 3.83136 21.5937 3.6727C21.1589 3.39239 20.4636 3.10214 19.5151 2.84344C17.6323 2.32996 14.975 2 12 2C9.02505 2 6.3677 2.32996 4.48494 2.84344C3.5364 3.10214 2.84108 3.39239 2.40635 3.6727C2.16028 3.83137 2.05975 3.94376 2.02019 4ZM3.95871 0.913916C6.05717 0.341608 8.89982 0 12 0C15.1002 0 17.9428 0.341608 20.0413 0.913916C21.0834 1.19812 21.9989 1.55431 22.6775 1.99183C23.3112 2.40048 24 3.05621 24 4C24 4.94379 23.3112 5.59952 22.6775 6.00817C21.9989 6.44569 21.0834 6.80188 20.0413 7.08608C17.9428 7.65839 15.1002 8 12 8C8.89982 8 6.05717 7.65839 3.95871 7.08608C2.91664 6.80188 2.00105 6.44569 1.32252 6.00817C0.688758 5.59952 0 4.94379 0 4C0 3.05621 0.688758 2.40048 1.32252 1.99183C2.00105 1.55431 2.91664 1.19812 3.95871 0.913916Z" fill="black"/>
</g>
<defs>
<clipPath id="clip0_1068_7810">
<rect width="24" height="24" fill="white"/>
</clipPath>
</defs>
</svg>

<svg width="24" height="24" viewBox="0 0 24 24" xmlns="http://www.w3.org/2000/svg"><g clip-path="url(#a)" fill-rule="evenodd" clip-rule="evenodd"><path opacity=".5" d="M.702 3.92a1 1 0 0 1 1.403.182l8.688 11.288A1 1 0 0 1 11 16v6h2v-6a1 1 0 0 1 .208-.61l8.688-11.288a1 1 0 0 1 1.584 1.22L15 16.34V23a1 1 0 0 1-1 1h-4a1 1 0 0 1-1-1v-6.66L.52 5.322A1 1 0 0 1 .702 3.92Z"/><path d="M2.02 4c.04.056.14.169.386.327.435.28 1.13.57 2.079.83C6.368 5.67 9.025 6 12 6c2.975 0 5.632-.33 7.515-.843.949-.26 1.644-.55 2.079-.83.246-.158.346-.27.386-.327-.04-.056-.14-.169-.386-.327-.435-.28-1.13-.57-2.079-.83C17.632 2.33 14.975 2 12 2c-2.975 0-5.632.33-7.515.843-.949.26-1.644.55-2.079.83-.246.158-.346.27-.386.327ZM3.96.914C6.057.342 8.899 0 12 0c3.1 0 5.943.342 8.041.914 1.042.284 1.958.64 2.636 1.078C23.311 2.4 24 3.056 24 4s-.689 1.6-1.323 2.008c-.678.438-1.594.794-2.636 1.078C17.943 7.658 15.101 8 12 8c-3.1 0-5.943-.342-8.041-.914C2.917 6.802 2 6.446 1.323 6.008.689 5.6 0 4.944 0 4s.689-1.6 1.323-2.008C2 1.554 2.917 1.198 3.959.914Z"/></g><defs><clipPath id="a"><path fill="#fff" d="M0 0h24v24H0z"/></clipPath></defs></svg>
